X: 1
T: Sillocks and Tatties
R: reel
O: Trad Shetland
Z: 2005 John Chambers <jc:trillian.mit.edu>
N: From transcription by Chris Hoseason; chords by jc
N: A sillock is a pollock, aka coalfish
M: C|
L: 1/8
K: D
B | "D"A2A=c "G"BGGB | "D"A2Ag  "A"fded     |  "D"A2A=c "G"BGGe | "D"fa"A"ef "D"d3 :|
e | "D"fdad  "A"ecce | "D"fdad "(G)"bd"D"ad |  "D"fdad  "A"ecce | "D"fa"A"ef "D"d3 ||
e | "D"fdad  "A"ecce | "D"fdad "(G)"bd"D"ad | "Em"gefd  "A"ecce | "D"fa"A"ef "D"d3 |]
